src/basic/700/u2192-right.svg

<svg width="20" height="20" viewBox="0 0 20 20" fill="none" xmlns="http://www.w3.org/2000/svg">
<path fill-rule="evenodd" clip-rule="evenodd" d="M17.5644,11h-17.5644v-1h17.6127l-4.8949,-4.8965l0.7072,-0.70699l5.7143,5.71619l0.3495,0.3496l-0.3456,0.3535l-5.7143,5.8438l-0.715,-0.6992z" fill="black"/>
</svg>

<svg width="20" height="20" viewBox="0 0 20 20" fill="none" xmlns="http://www.w3.org/2000/svg">
<path fill-rule="evenodd" clip-rule="evenodd" d="M17.5644 11H0V10H17.6127L12.7178 5.1035L13.425 4.39651L19.1393 10.1127L19.4888 10.4623L19.1432 10.8158L13.4289 16.6596L12.7139 15.9604L17.5644 11Z" fill="black"/>
</svg>
